X: 196
T: Pourquoy tant
N: Derived from Rue3019-Pourquoy_tant.krn
C: Pierre de la Rue
%%abc-version 2.0
%%abcx-abcm2ps-target-version 5.9.1 (29 Sep 2008)
%%abc-creator hum2abc beta
%%abcx-conversion-date 2019/02/17 08:01:18
%%abc-edited-by Jesse Rodin
%%abc-edited-by Chris Gage 06-17-2013
%%abcx-initial-encoding-date 2013/08/08/
%%humdrum-veritas 3776336214
%%humdrum-veritas-data 2820376237
%%linebreak <none>
%%barnumbers 0
L: 1/4
M: 2/1
Q: 1/2=120
%%staves [1 2 3 4]
V: 1 clef=treble
V: 2 clef=treble-8
V: 3 clef=treble-8
V: 4 clef=bass
K: C
[V:1] A6GA | 
[V:2] A8 | 
[V:3] z8 | 
[V:4] z8 | 
[V:1] _B2A4GF | 
[V:2] d6B2 | 
[V:3] z4A4- | 
[V:4] z4A,,4- | 
[V:1] E4D4 | 
[V:2] c4d4 | 
[V:3] A2GA_B2A2- | 
[V:4] A,,4D,4- | 
[V:1] z4E3C | 
[V:2] z4A4- | 
[V:3] A2GFE4 | 
[V:4] D,2B,,2C,4 | 
[V:1] F3GA2B2 | 
[V:2] A4F4 | 
[V:3] D4z2D2 | 
[V:4] D,8 | 
[V:1] c4c4 | 
[V:2] G4A4 | 
[V:3] E4F4 | 
[V:4] z4A,,4 | 
[V:1] B4z2B2 | 
[V:2] B3EE4 | 
[V:3] GABA/B/c2B2 | 
[V:4] E,4E,4 | 
[V:1] c2B2GABA/B/ | 
[V:2] z2e4e2 | 
[V:3] z2B2c2B2 | 
[V:4] E,8 | 
[V:1] c2B4AG | 
[V:2] e2e3de2 | 
[V:3] G3AB2c2- | 
[V:4] E,8 | 
[V:1] A2d2c2B2- | 
[V:2] A4e4 | 
[V:3] cBA4G2 | 
[V:4] F,4E,4 | 
[V:1] B2A4^G2 | 
[V:2] d4e4 | 
[V:3] A4B4 | 
[V:4] F,4E,4 | 
[V:1] A8 | 
[V:2] z2E2E3F | 
[V:3] A4z2A2 | 
[V:4] A,,8 | 
[V:1] z8 | 
[V:2] G4z2g2- | 
[V:3] B4c4 | 
[V:4] z2E,2E,4 | 
[V:1] z8 | 
[V:2] gfe4d2 | 
[V:3] B4z2d2 | 
[V:4] E,4F,4 | 
[V:1] z8 | 
[V:2] e6dc | 
[V:3] cBc2BAB2- | 
[V:4] E,4z2E,2 | 
[V:1] z2A2B4 | 
[V:2] d4e2E2 | 
[V:3] B2A4^G2 | 
[V:4] F,4E,4 | 
[V:1] c8 | 
[V:2] F4E4 | 
[V:3] A8 | 
[V:4] A,,4z2A,,2 | 
[V:1] B4G4 | 
[V:2] z2e3de2 | 
[V:3] z8 | 
[V:4] E,8 | 
[V:1] A4A4 | 
[V:2] c2d3cd2 | 
[V:3] z8 | 
[V:4] F,4F,2F,2 | 
[V:1] z2G2G4 | 
[V:2] B2c3Bc2 | 
[V:3] z2e3de2 | 
[V:4] E,4z2E,2 | 
[V:1] A8 | 
[V:2] A8 | 
[V:3] c2d3cd2 | 
[V:4] F,4F,4 | 
[V:1] G3F/G/A2c2- | 
[V:2] e6dc | 
[V:3] B2c3Bc2 | 
[V:4] E,8 | 
[V:1] cBA4^G2 | 
[V:2] d4e4 | 
[V:3] A4B4 | 
[V:4] F,4E,4 | 
[V:1] A2E2z2c2- | 
[V:2] z2c3def | 
[V:3] A8 | 
[V:4] A,,8 | 
[V:1] cAc2B2G2 | 
[V:2] e2E2e4 | 
[V:3] z4z2G2- | 
[V:4] E,8- | 
[V:1] z2G3ABc | 
[V:2] z2E3FGA | 
[V:3] GABcB2E2 | 
[V:4] E,8- | 
[V:1] B2E2z2E2- | 
[V:2] G2C2c3d | 
[V:3] z2E3FGA | 
[V:4] E,8- | 
[V:1] EFGAG2C2 | 
[V:2] e8- | 
[V:3] G2C2c4 | 
[V:4] E,8- | 
[V:1] !fermata!G8 | 
[V:2] !fermata!e8 | 
[V:3] !fermata!B8 | 
[V:4] !fermata!E,8 | 
[V:1] G3FEDE2- | 
[V:2] e3dcBc2- | 
[V:3] z8 | 
[V:4] E,8 | 
[V:1] E2DCB,4 | 
[V:2] c2BAG4 | 
[V:3] z8 | 
[V:4] E,8 | 
[V:1] c3BAGA2- | 
[V:2] z8 | 
[V:3] A3GFEF2- | 
[V:4] A,,8- | 
[V:1] A2GFE4 | 
[V:2] z8 | 
[V:3] F2ED^C4 | 
[V:4] A,,8 | 
[V:1] D3EFGA2- | 
[V:2] f3edcd2- | 
[V:3] D8- | 
[V:4] z8 | 
[V:1] A2G4^F2 | 
[V:2] d2cBA4 | 
[V:3] D8 | 
[V:4] z8 | 
[V:1] G4z4 | 
[V:2] G4z2e2- | 
[V:3] z2B2c3d | 
[V:4] E,4E,2A,2- | 
[V:1] z2B2c3d | 
[V:2] efg4^f2 | 
[V:3] B4z4 | 
[V:4] A,2G,2A,4 | 
[V:1] B4z2d2- | 
[V:2] g6fe | 
[V:3] z2d3BB2- | 
[V:4] G,8 | 
[V:1] dBB3AGF | 
[V:2] d4e4 | 
[V:3] BAGFE4 | 
[V:4] z4z2G,2- | 
[V:1] E8 | 
[V:2] z2g3fed | 
[V:3] z8 | 
[V:4] G,E,E,3D,C,B,, | 
[V:1] z4z2E2 | 
[V:2] c8 | 
[V:3] A4A4 | 
[V:4] A,,4C,4 | 
[V:1] F2EDCDEF | 
[V:2] z4z2E2- | 
[V:3] A4A4 | 
[V:4] D,2C,B,,A,,B,,C,D, | 
[V:1] E2A,2z2B2 | 
[V:2] E2F2D4 | 
[V:3] A4^G4 | 
[V:4] C,2D,2B,,4 | 
[V:1] c2BAGABc | 
[V:2] E2e4dc | 
[V:3] A2GFEFGA | 
[V:4] A,,4z4 | 
[V:1] B2E2A4 | 
[V:2] dBe4d2 | 
[V:3] G2A2F4 | 
[V:4] z8 | 
[V:1] G4z2G2- | 
[V:2] e6dc | 
[V:3] E4z4 | 
[V:4] z4E,4 | 
[V:1] GAB4c2- | 
[V:2] G4z2e2 | 
[V:3] e4e4 | 
[V:4] E,3F,G,2A,2- | 
[V:1] c2B2c2A2- | 
[V:2] f2g2e2f2- | 
[V:3] d4c4 | 
[V:4] A,2G,2A,4 | 
[V:1] A2d3cBA | 
[V:2] f2edf4 | 
[V:3] A4z2d2- | 
[V:4] F,4D,4 | 
[V:1] G2A2c2B2- | 
[V:2] z2e2f2g2 | 
[V:3] d2cBA2B2 | 
[V:4] z2A,4G,2 | 
[V:1] B2A4^G2 | 
[V:2] e8 | 
[V:3] c3dB4 | 
[V:4] A,4E,4 | 
[V:1] A8- | 
[V:2] z2E2F4 | 
[V:3] A8- | 
[V:4] A,,8- | 
[V:1] A8 |]  
[V:2] E8 |]  
[V:3] A8 |]  
[V:4] A,,8 |]  



